packages/components/src/components/icon/mt5/ic-mt5-bvi-standard.svg

<svg viewBox="0 0 96 99" fill="none" xmlns="http://www.w3.org/2000/svg">
<g clip-path="url(#clip0_32407_18831)">
<path d="M88 0H8C3.58172 0 0 3.58172 0 8V91C0 95.4183 3.58172 99 8 99H88C92.4183 99 96 95.4183 96 91V8C96 3.58172 92.4183 0 88 0Z" fill="#F2F3F4"/>
<path d="M58.25 23H35.75C32.0221 23 29 26.0221 29 29.75V49.4375H65V29.75C65 26.0221 61.9779 23 58.25 23Z" fill="#0364B9"/>
<path d="M35.75 23C32.0221 23 29 26.0221 29 29.75V29.9461L62.6537 24.6342C61.4717 23.6157 59.9327 23 58.25 23H35.75Z" fill="#0A559E"/>
<path d="M65 29.75C65 28.0577 64.3774 26.5105 63.3485 25.3258L58.9281 49.4371L65 49.4375V29.75Z" fill="#0A559E"/>
<path d="M29 48.875H65V52.25C65 55.9779 61.9779 59 58.25 59H35.75C32.0221 59 29 55.9779 29 52.25V48.875Z" fill="#2A3052"/>
<path d="M37.2644 33.8945C37.4264 34.1915 37.6109 34.5605 37.8179 35.0015C38.0339 35.4335 38.2544 35.906 38.4794 36.419C38.7134 36.923 38.9429 37.4405 39.1679 37.9715C39.3929 38.5025 39.6044 39.002 39.8024 39.47C40.0004 39.002 40.2119 38.5025 40.4369 37.9715C40.6619 37.4405 40.8869 36.923 41.1119 36.419C41.3459 35.906 41.5664 35.4335 41.7734 35.0015C41.9894 34.5605 42.1784 34.1915 42.3404 33.8945H44.2574C44.3474 34.5155 44.4284 35.213 44.5004 35.987C44.5814 36.752 44.6489 37.553 44.7029 38.39C44.7659 39.218 44.8199 40.0505 44.8649 40.8875C44.9189 41.7245 44.9639 42.512 44.9999 43.25H42.9479C42.9209 42.341 42.8849 41.351 42.8399 40.28C42.7949 39.209 42.7274 38.129 42.6374 37.04C42.4754 37.418 42.2954 37.8365 42.0974 38.2955C41.8994 38.7545 41.7014 39.2135 41.5034 39.6725C41.3144 40.1315 41.1299 40.5725 40.9499 40.9955C40.7699 41.4095 40.6169 41.765 40.4909 42.062H39.0194C38.8934 41.765 38.7404 41.4095 38.5604 40.9955C38.3804 40.5725 38.1914 40.1315 37.9934 39.6725C37.8044 39.2135 37.6109 38.7545 37.4129 38.2955C37.2149 37.8365 37.0349 37.418 36.8729 37.04C36.7829 38.129 36.7154 39.209 36.6704 40.28C36.6254 41.351 36.5894 42.341 36.5624 43.25H34.5104C34.5464 42.512 34.5869 41.7245 34.6319 40.8875C34.6859 40.0505 34.7399 39.218 34.7939 38.39C34.8569 37.553 34.9244 36.752 34.9964 35.987C35.0774 35.213 35.1629 34.5155 35.2529 33.8945H37.2644Z" fill="white"/>
<path d="M53.0283 33.8945V35.69H50.2068V43.25H48.1008V35.69H45.2793V33.8945H53.0283Z" fill="white"/>
<path d="M57.4868 40.496C57.4868 40.235 57.4283 40.0055 57.3113 39.8075C57.1943 39.6005 56.9918 39.4295 56.7038 39.2945C56.4158 39.1595 56.0288 39.056 55.5428 38.984C55.0568 38.912 54.4448 38.876 53.7068 38.876C53.8058 38.039 53.8868 37.1885 53.9498 36.3245C54.0128 35.4605 54.0623 34.6505 54.0983 33.8945H59.1608V35.582H55.7858C55.7678 35.906 55.7453 36.221 55.7183 36.527C55.7003 36.824 55.6778 37.085 55.6508 37.31C56.9648 37.4 57.9323 37.7105 58.5533 38.2415C59.1833 38.7635 59.4983 39.4925 59.4983 40.4285C59.4983 40.8605 59.4218 41.261 59.2688 41.63C59.1158 41.999 58.8863 42.3185 58.5803 42.5885C58.2743 42.8585 57.8873 43.07 57.4193 43.223C56.9603 43.376 56.4203 43.4525 55.7993 43.4525C55.5563 43.4525 55.2998 43.4345 55.0298 43.3985C54.7688 43.3715 54.5123 43.331 54.2603 43.277C54.0173 43.232 53.7968 43.1825 53.5988 43.1285C53.4008 43.0745 53.2478 43.0205 53.1398 42.9665L53.5043 41.306C53.7293 41.405 54.0263 41.504 54.3953 41.603C54.7643 41.693 55.2053 41.738 55.7183 41.738C56.3393 41.738 56.7893 41.6165 57.0683 41.3735C57.3473 41.1215 57.4868 40.829 57.4868 40.496Z" fill="white"/>
<path d="M42.3558 55.4809C42.5043 55.4809 42.6258 55.4697 42.7203 55.4472C42.8193 55.4202 42.898 55.3864 42.9565 55.3459C43.015 55.3009 43.0555 55.2492 43.078 55.1907C43.1005 55.1322 43.1118 55.0669 43.1118 54.9949C43.1118 54.8419 43.0398 54.7159 42.8958 54.6169C42.7518 54.5134 42.5043 54.4032 42.1533 54.2862C42.0003 54.2322 41.8473 54.1714 41.6943 54.1039C41.5413 54.0319 41.404 53.9442 41.2825 53.8407C41.161 53.7327 41.062 53.6044 40.9855 53.4559C40.909 53.3029 40.8708 53.1184 40.8708 52.9024C40.8708 52.6864 40.9113 52.4929 40.9923 52.3219C41.0733 52.1464 41.188 51.9979 41.3365 51.8764C41.485 51.7549 41.665 51.6627 41.8765 51.5997C42.088 51.5322 42.3265 51.4984 42.592 51.4984C42.907 51.4984 43.1793 51.5322 43.4088 51.5997C43.6383 51.6672 43.8273 51.7414 43.9758 51.8224L43.672 52.6527C43.5415 52.5852 43.3953 52.5267 43.2333 52.4772C43.0758 52.4232 42.8845 52.3962 42.6595 52.3962C42.4075 52.3962 42.2253 52.4322 42.1128 52.5042C42.0048 52.5717 41.9508 52.6774 41.9508 52.8214C41.9508 52.9069 41.971 52.9789 42.0115 53.0374C42.052 53.0959 42.1083 53.1499 42.1803 53.1994C42.2568 53.2444 42.3423 53.2872 42.4368 53.3277C42.5358 53.3637 42.6438 53.4019 42.7608 53.4424C43.0038 53.5324 43.2153 53.6224 43.3953 53.7124C43.5753 53.7979 43.7238 53.8992 43.8408 54.0162C43.9623 54.1332 44.0523 54.2704 44.1108 54.4279C44.1693 54.5854 44.1985 54.7767 44.1985 55.0017C44.1985 55.4382 44.0455 55.7779 43.7395 56.0209C43.4335 56.2594 42.9723 56.3787 42.3558 56.3787C42.1488 56.3787 41.962 56.3652 41.7955 56.3382C41.629 56.3157 41.4805 56.2864 41.35 56.2504C41.224 56.2144 41.1138 56.1762 41.0193 56.1357C40.9293 56.0952 40.8528 56.0569 40.7898 56.0209L41.0868 55.1839C41.2263 55.2604 41.3973 55.3302 41.5998 55.3932C41.8068 55.4517 42.0588 55.4809 42.3558 55.4809Z" fill="white"/>
<path d="M48.3464 51.6064V52.5042H46.9357V56.2842H45.8827V52.5042H44.4719V51.6064H48.3464Z" fill="white"/>
<path d="M50.0762 55.4269C50.1257 55.4314 50.1819 55.4359 50.2449 55.4404C50.3124 55.4404 50.3912 55.4404 50.4812 55.4404C51.0077 55.4404 51.3969 55.3077 51.6489 55.0422C51.9054 54.7767 52.0337 54.4099 52.0337 53.9419C52.0337 53.4514 51.9122 53.0802 51.6692 52.8282C51.4262 52.5762 51.0414 52.4502 50.5149 52.4502C50.4429 52.4502 50.3687 52.4524 50.2922 52.4569C50.2157 52.4569 50.1437 52.4614 50.0762 52.4704V55.4269ZM53.1204 53.9419C53.1204 54.3469 53.0574 54.7002 52.9314 55.0017C52.8054 55.3032 52.6254 55.5529 52.3914 55.7509C52.1619 55.9489 51.8807 56.0974 51.5477 56.1964C51.2147 56.2954 50.8412 56.3449 50.4272 56.3449C50.2382 56.3449 50.0177 56.3359 49.7657 56.3179C49.5137 56.3044 49.2662 56.2729 49.0232 56.2234V51.6672C49.2662 51.6222 49.5182 51.5929 49.7792 51.5794C50.0447 51.5614 50.2719 51.5524 50.4609 51.5524C50.8614 51.5524 51.2237 51.5974 51.5477 51.6874C51.8762 51.7774 52.1574 51.9192 52.3914 52.1127C52.6254 52.3062 52.8054 52.5537 52.9314 52.8552C53.0574 53.1567 53.1204 53.5189 53.1204 53.9419Z" fill="white"/>
<path d="M24.1351 78.1441C23.3991 78.1441 22.7751 78.0201 22.2631 77.7721C21.7511 77.5161 21.3151 77.1881 20.9551 76.7881L22.1551 75.5761C22.7231 76.2161 23.4231 76.5361 24.2551 76.5361C24.7031 76.5361 25.0351 76.4441 25.2511 76.2601C25.4671 76.0761 25.5751 75.8321 25.5751 75.5281C25.5751 75.2961 25.5111 75.1041 25.3831 74.9521C25.2551 74.7921 24.9951 74.6841 24.6031 74.6281L23.7751 74.5201C22.8871 74.4081 22.2351 74.1401 21.8191 73.7161C21.4111 73.2921 21.2071 72.7281 21.2071 72.0241C21.2071 71.6481 21.2791 71.3041 21.4231 70.9921C21.5671 70.6801 21.7711 70.4121 22.0351 70.1881C22.3071 69.9641 22.6351 69.7921 23.0191 69.6721C23.4111 69.5441 23.8551 69.4801 24.3511 69.4801C24.9831 69.4801 25.5391 69.5801 26.0191 69.7801C26.4991 69.9801 26.9111 70.2721 27.2551 70.6561L26.0431 71.8801C25.8431 71.6481 25.5991 71.4601 25.3111 71.3161C25.0311 71.1641 24.6751 71.0881 24.2431 71.0881C23.8351 71.0881 23.5311 71.1601 23.3311 71.3041C23.1311 71.4481 23.0311 71.6481 23.0311 71.9041C23.0311 72.1921 23.1071 72.4001 23.2591 72.5281C23.4191 72.6561 23.6751 72.7481 24.0271 72.8041L24.8551 72.9361C25.7191 73.0721 26.3591 73.3401 26.7751 73.7401C27.1911 74.1321 27.3991 74.6921 27.3991 75.4201C27.3991 75.8201 27.3271 76.1881 27.1831 76.5241C27.0391 76.8601 26.8271 77.1481 26.5471 77.3881C26.2751 77.6281 25.9351 77.8161 25.5271 77.9521C25.1191 78.0801 24.6551 78.1441 24.1351 78.1441Z" fill="#333333"/>
<path d="M30.9648 78.0001C30.3488 78.0001 29.8808 77.8441 29.5608 77.5321C29.2488 77.2201 29.0928 76.7641 29.0928 76.1641V73.0801H28.2048V71.7001H28.6488C28.8888 71.7001 29.0528 71.6441 29.1408 71.5321C29.2288 71.4121 29.2728 71.2441 29.2728 71.0281V69.9961H30.8688V71.7001H32.1168V73.0801H30.8688V76.6201H32.0208V78.0001H30.9648Z" fill="#333333"/>
<path d="M38.0065 78.0001C37.6865 78.0001 37.4185 77.9001 37.2025 77.7001C36.9945 77.5001 36.8625 77.2321 36.8065 76.8961H36.7345C36.6385 77.3041 36.4265 77.6161 36.0985 77.8321C35.7705 78.0401 35.3665 78.1441 34.8865 78.1441C34.2545 78.1441 33.7705 77.9761 33.4345 77.6401C33.0985 77.3041 32.9305 76.8601 32.9305 76.3081C32.9305 75.6441 33.1705 75.1521 33.6505 74.8321C34.1385 74.5041 34.7985 74.3401 35.6305 74.3401H36.6265V73.9441C36.6265 73.6401 36.5465 73.4001 36.3865 73.2241C36.2265 73.0401 35.9585 72.9481 35.5825 72.9481C35.2305 72.9481 34.9505 73.0241 34.7425 73.1761C34.5345 73.3281 34.3625 73.5001 34.2265 73.6921L33.1705 72.7561C33.4265 72.3801 33.7465 72.0881 34.1305 71.8801C34.5225 71.6641 35.0505 71.5561 35.7145 71.5561C36.6105 71.5561 37.2825 71.7521 37.7305 72.1441C38.1785 72.5361 38.4025 73.1081 38.4025 73.8601V76.6201H38.9905V78.0001H38.0065ZM35.5465 76.9081C35.8425 76.9081 36.0945 76.8441 36.3025 76.7161C36.5185 76.5881 36.6265 76.3801 36.6265 76.0921V75.3481H35.7625C35.0665 75.3481 34.7185 75.5841 34.7185 76.0561V76.2361C34.7185 76.4681 34.7905 76.6401 34.9345 76.7521C35.0785 76.8561 35.2825 76.9081 35.5465 76.9081Z" fill="#333333"/>
<path d="M40.1825 78.0001V71.7001H41.9585V72.7681H42.0305C42.1425 72.4401 42.3385 72.1561 42.6185 71.9161C42.8985 71.6761 43.2865 71.5561 43.7825 71.5561C44.4305 71.5561 44.9185 71.7721 45.2465 72.2041C45.5825 72.6361 45.7505 73.2521 45.7505 74.0521V78.0001H43.9745V74.1961C43.9745 73.7881 43.9105 73.4881 43.7825 73.2961C43.6545 73.0961 43.4265 72.9961 43.0985 72.9961C42.9545 72.9961 42.8145 73.0161 42.6785 73.0561C42.5425 73.0881 42.4185 73.1441 42.3065 73.2241C42.2025 73.3041 42.1185 73.4041 42.0545 73.5241C41.9905 73.6361 41.9585 73.7681 41.9585 73.9201V78.0001H40.1825Z" fill="#333333"/>
<path d="M51.195 76.9441H51.135C51.087 77.1121 51.011 77.2721 50.907 77.4241C50.803 77.5681 50.675 77.6961 50.523 77.8081C50.379 77.9121 50.211 77.9921 50.019 78.0481C49.835 78.1121 49.643 78.1441 49.443 78.1441C48.643 78.1441 48.039 77.8641 47.631 77.3041C47.223 76.7361 47.019 75.9161 47.019 74.8441C47.019 73.7721 47.223 72.9561 47.631 72.3961C48.039 71.8361 48.643 71.5561 49.443 71.5561C49.851 71.5561 50.211 71.6681 50.523 71.8921C50.843 72.1161 51.047 72.4041 51.135 72.7561H51.195V69.1201H52.971V78.0001H51.195V76.9441ZM50.031 76.7041C50.367 76.7041 50.643 76.6241 50.859 76.4641C51.083 76.2961 51.195 76.0681 51.195 75.7801V73.9201C51.195 73.6321 51.083 73.4081 50.859 73.2481C50.643 73.0801 50.367 72.9961 50.031 72.9961C49.695 72.9961 49.415 73.1161 49.191 73.3561C48.975 73.5881 48.867 73.9041 48.867 74.3041V75.3961C48.867 75.7961 48.975 76.1161 49.191 76.3561C49.415 76.5881 49.695 76.7041 50.031 76.7041Z" fill="#333333"/>
<path d="M59.2878 78.0001C58.9678 78.0001 58.6998 77.9001 58.4838 77.7001C58.2758 77.5001 58.1438 77.2321 58.0878 76.8961H58.0158C57.9198 77.3041 57.7078 77.6161 57.3798 77.8321C57.0518 78.0401 56.6478 78.1441 56.1678 78.1441C55.5358 78.1441 55.0518 77.9761 54.7158 77.6401C54.3798 77.3041 54.2118 76.8601 54.2118 76.3081C54.2118 75.6441 54.4518 75.1521 54.9318 74.8321C55.4198 74.5041 56.0798 74.3401 56.9118 74.3401H57.9078V73.9441C57.9078 73.6401 57.8278 73.4001 57.6678 73.2241C57.5078 73.0401 57.2398 72.9481 56.8638 72.9481C56.5118 72.9481 56.2318 73.0241 56.0238 73.1761C55.8158 73.3281 55.6438 73.5001 55.5078 73.6921L54.4518 72.7561C54.7078 72.3801 55.0278 72.0881 55.4118 71.8801C55.8038 71.6641 56.3318 71.5561 56.9958 71.5561C57.8918 71.5561 58.5638 71.7521 59.0118 72.1441C59.4598 72.5361 59.6838 73.1081 59.6838 73.8601V76.6201H60.2718V78.0001H59.2878ZM56.8278 76.9081C57.1238 76.9081 57.3758 76.8441 57.5838 76.7161C57.7998 76.5881 57.9078 76.3801 57.9078 76.0921V75.3481H57.0438C56.3478 75.3481 55.9998 75.5841 55.9998 76.0561V76.2361C55.9998 76.4681 56.0718 76.6401 56.2158 76.7521C56.3598 76.8561 56.5638 76.9081 56.8278 76.9081Z" fill="#333333"/>
<path d="M61.4638 78.0001V71.7001H63.2398V73.0681H63.2998C63.3318 72.8921 63.3878 72.7241 63.4678 72.5641C63.5478 72.3961 63.6518 72.2481 63.7798 72.1201C63.9158 71.9921 64.0758 71.8921 64.2598 71.8201C64.4438 71.7401 64.6598 71.7001 64.9078 71.7001H65.2198V73.3561H64.7758C64.2558 73.3561 63.8678 73.4241 63.6118 73.5601C63.3638 73.6961 63.2398 73.9481 63.2398 74.3161V78.0001H61.4638Z" fill="#333333"/>
<path d="M70.1325 76.9441H70.0725C70.0245 77.1121 69.9485 77.2721 69.8445 77.4241C69.7405 77.5681 69.6125 77.6961 69.4605 77.8081C69.3165 77.9121 69.1485 77.9921 68.9565 78.0481C68.7725 78.1121 68.5805 78.1441 68.3805 78.1441C67.5805 78.1441 66.9765 77.8641 66.5685 77.3041C66.1605 76.7361 65.9565 75.9161 65.9565 74.8441C65.9565 73.7721 66.1605 72.9561 66.5685 72.3961C66.9765 71.8361 67.5805 71.5561 68.3805 71.5561C68.7885 71.5561 69.1485 71.6681 69.4605 71.8921C69.7805 72.1161 69.9845 72.4041 70.0725 72.7561H70.1325V69.1201H71.9085V78.0001H70.1325V76.9441ZM68.9685 76.7041C69.3045 76.7041 69.5805 76.6241 69.7965 76.4641C70.0205 76.2961 70.1325 76.0681 70.1325 75.7801V73.9201C70.1325 73.6321 70.0205 73.4081 69.7965 73.2481C69.5805 73.0801 69.3045 72.9961 68.9685 72.9961C68.6325 72.9961 68.3525 73.1161 68.1285 73.3561C67.9125 73.5881 67.8045 73.9041 67.8045 74.3041V75.3961C67.8045 75.7961 67.9125 76.1161 68.1285 76.3561C68.3525 76.5881 68.6325 76.7041 68.9685 76.7041Z" fill="#333333"/>
<path d="M78 16.5H56C55.1716 16.5 54.5 17.1716 54.5 18V28C54.5 28.8284 55.1716 29.5 56 29.5H78C78.8284 29.5 79.5 28.8284 79.5 28V18C79.5 17.1716 78.8284 16.5 78 16.5Z" fill="#4BB4B3"/>
<path d="M58.7695 20.0195H62.1595C62.7395 20.0195 63.1895 20.1825 63.5095 20.5095C63.8365 20.8365 63.9995 21.2695 63.9995 21.8095C63.9995 22.0765 63.9625 22.3025 63.8895 22.4895C63.8225 22.6765 63.7295 22.8295 63.6095 22.9495C63.4965 23.0695 63.3595 23.1595 63.1995 23.2195C63.0465 23.2725 62.8795 23.3025 62.6995 23.3095V23.3695C62.8665 23.3695 63.0395 23.3995 63.2195 23.4595C63.4065 23.5195 63.5765 23.6165 63.7295 23.7495C63.8825 23.8765 64.0095 24.0425 64.1095 24.2495C64.2165 24.4565 64.2695 24.7095 64.2695 25.0095C64.2695 25.2825 64.2225 25.5425 64.1295 25.7895C64.0425 26.0295 63.9195 26.2395 63.7595 26.4195C63.5995 26.5995 63.4095 26.7425 63.1895 26.8495C62.9695 26.9495 62.7295 26.9995 62.4695 26.9995H58.7695V20.0195ZM60.2895 25.7195H62.0395C62.2395 25.7195 62.3965 25.6665 62.5095 25.5595C62.6295 25.4465 62.6895 25.2895 62.6895 25.0895V24.7495C62.6895 24.5495 62.6295 24.3965 62.5095 24.2895C62.3965 24.1765 62.2395 24.1195 62.0395 24.1195H60.2895V25.7195ZM60.2895 22.8795H61.7995C61.9995 22.8795 62.1565 22.8225 62.2695 22.7095C62.3825 22.5965 62.4395 22.4395 62.4395 22.2395V21.9395C62.4395 21.7395 62.3825 21.5825 62.2695 21.4695C62.1565 21.3565 61.9995 21.2995 61.7995 21.2995H60.2895V22.8795ZM66.7765 26.9995L64.5265 20.0195H66.0665L67.1065 23.3695L67.6565 25.5595H67.6865L68.2165 23.3695L69.2565 20.0195H70.7465L68.4765 26.9995H66.7765ZM71.3905 26.9995V25.7895H72.2905V21.2295H71.3905V20.0195H74.7105V21.2295H73.8105V25.7895H74.7105V26.9995H71.3905Z" fill="white"/>
<path d="M78 16.5H56C55.1716 16.5 54.5 17.1716 54.5 18V28C54.5 28.8284 55.1716 29.5 56 29.5H78C78.8284 29.5 79.5 28.8284 79.5 28V18C79.5 17.1716 78.8284 16.5 78 16.5Z" stroke="#4BB4B3"/>
</g>
<defs>
<clipPath id="clip0_32407_18831">
<rect width="96" height="99" fill="white"/>
</clipPath>
</defs>
</svg>

<svg viewBox="0 0 96 99" fill="none" xmlns="http://www.w3.org/2000/svg"><g clip-path="url(#prefix__clip0_29417_160636)"><path d="M88 0H8a8 8 0 00-8 8v83a8 8 0 008 8h80a8 8 0 008-8V8a8 8 0 00-8-8z" fill="#F2F3F4"/><g clip-path="url(#prefix__clip1_29417_160636)"><path d="M58.25 23h-22.5A6.75 6.75 0 0029 29.75v19.688h36V29.75A6.75 6.75 0 0058.25 23z" fill="#0364B9"/><path d="M35.75 23A6.75 6.75 0 0029 29.75v.196l33.654-5.312A6.723 6.723 0 0058.25 23h-22.5zM65 29.75c0-1.692-.623-3.24-1.651-4.424l-4.42 24.111H65V29.75z" fill="#0A559E"/><path d="M29 48.875h36v3.375A6.75 6.75 0 0158.25 59h-22.5A6.75 6.75 0 0129 52.25v-3.375z" fill="#2A3052"/><path d="M37.26 33.895c.162.296.346.665.553 1.106.216.433.437.905.662 1.418.234.504.463 1.022.688 1.553.226.53.437 1.03.635 1.498l.634-1.498c.225-.532.45-1.049.675-1.553.235-.513.455-.985.662-1.417.216-.442.405-.81.567-1.108h1.917c.09.622.171 1.319.243 2.093.081.765.148 1.566.203 2.403.063.828.117 1.66.162 2.498.053.837.099 1.624.135 2.362h-2.053c-.026-.909-.063-1.899-.107-2.97a80.228 80.228 0 00-.203-3.24l-.54 1.255-.594 1.377a122.562 122.562 0 01-1.013 2.39h-1.471c-.126-.297-.279-.652-.459-1.066-.18-.424-.369-.864-.567-1.324a89.758 89.758 0 00-.58-1.377 582.26 582.26 0 01-.54-1.255 80.228 80.228 0 00-.203 3.24 242.892 242.892 0 00-.108 2.97h-2.052c.036-.738.077-1.526.121-2.362l.162-2.498c.063-.837.131-1.638.203-2.403.081-.774.166-1.471.257-2.093h2.011zM53.024 33.895v1.795h-2.822v7.56h-2.106v-7.56h-2.821v-1.795h7.749zM57.482 40.496c0-.261-.058-.49-.175-.689-.117-.207-.32-.378-.608-.513-.288-.134-.675-.238-1.16-.31-.487-.072-1.099-.108-1.837-.108.1-.837.18-1.688.243-2.551a96.92 96.92 0 00.149-2.43h5.062v1.687h-3.375c-.018.324-.04.639-.067.945-.018.297-.04.558-.068.783 1.314.09 2.282.4 2.903.931.63.523.945 1.252.945 2.188 0 .431-.077.832-.23 1.201a2.585 2.585 0 01-.688.959c-.306.27-.693.481-1.161.634-.46.153-1 .23-1.62.23-.243 0-.5-.019-.77-.055a7.211 7.211 0 01-.77-.121 8.206 8.206 0 01-.66-.148 2.597 2.597 0 01-.46-.162l.365-1.661c.225.099.522.198.89.297.37.09.81.135 1.324.135.62 0 1.07-.121 1.35-.364.279-.253.418-.545.418-.878zM42.293 55.48c.149 0 .27-.01.365-.033a.775.775 0 00.236-.101.36.36 0 00.121-.155.542.542 0 00.034-.196c0-.153-.072-.28-.216-.378-.144-.104-.391-.214-.742-.33a6.482 6.482 0 01-.46-.183 1.838 1.838 0 01-.411-.263 1.316 1.316 0 01-.297-.385 1.227 1.227 0 01-.115-.554c0-.216.04-.41.122-.58.08-.176.195-.324.344-.446.148-.121.328-.213.54-.276.211-.068.45-.102.715-.102.315 0 .588.034.817.102.23.067.419.141.567.222l-.304.83a2.621 2.621 0 00-.438-.175 1.78 1.78 0 00-.574-.08c-.252 0-.434.035-.547.107-.108.068-.162.173-.162.317 0 .086.02.158.06.216.041.059.098.113.17.162.076.045.162.088.256.129.1.036.207.074.324.114.243.09.455.18.635.27.18.086.328.187.445.304.122.117.212.254.27.412.059.157.088.349.088.574 0 .436-.153.776-.46 1.019-.305.238-.766.358-1.383.358a3.52 3.52 0 01-.56-.04 2.795 2.795 0 01-.776-.203 2.71 2.71 0 01-.23-.115l.297-.837c.14.076.31.146.513.21.207.058.46.087.756.087zM48.284 51.606v.898h-1.411v3.78H45.82v-3.78h-1.41v-.898h3.874zM52.1 56.284a23.54 23.54 0 00-.98-1.586A16.12 16.12 0 0050 53.22v3.064h-1.04v-4.678h.858c.148.149.313.331.492.547.18.216.363.448.547.695.19.243.376.498.56.763.185.261.358.513.52.756v-2.76h1.047v4.677h-.885z" fill="#fff"/></g><path d="M24.135 78.144c-.736 0-1.36-.124-1.872-.372a4.363 4.363 0 01-1.308-.984l1.2-1.212c.568.64 1.268.96 2.1.96.448 0 .78-.092.996-.276a.914.914 0 00.324-.732.863.863 0 00-.192-.576c-.128-.16-.388-.268-.78-.324l-.828-.108c-.888-.112-1.54-.38-1.956-.804-.408-.424-.612-.988-.612-1.692 0-.376.072-.72.216-1.032.144-.312.348-.58.612-.804.272-.224.6-.396.984-.516a4.283 4.283 0 011.332-.192c.632 0 1.188.1 1.668.3.48.2.892.492 1.236.876l-1.212 1.224a2.33 2.33 0 00-.732-.564c-.28-.152-.636-.228-1.068-.228-.408 0-.712.072-.912.216-.2.144-.3.344-.3.6 0 .288.076.496.228.624.16.128.416.22.768.276l.828.132c.864.136 1.504.404 1.92.804.416.392.624.952.624 1.68 0 .4-.072.768-.216 1.104a2.336 2.336 0 01-.636.864c-.272.24-.612.428-1.02.564a4.647 4.647 0 01-1.392.192zM30.965 78c-.616 0-1.084-.156-1.404-.468-.312-.312-.468-.768-.468-1.368V73.08h-.888V71.7h.444c.24 0 .404-.056.492-.168.088-.12.132-.288.132-.504v-1.032h1.596V71.7h1.248v1.38h-1.248v3.54h1.152V78h-1.056zM38.007 78c-.32 0-.588-.1-.804-.3-.209-.2-.34-.468-.397-.804h-.072a1.48 1.48 0 01-.636.936c-.328.208-.731.312-1.212.312-.632 0-1.116-.168-1.452-.504-.335-.336-.503-.78-.503-1.332 0-.664.24-1.156.72-1.476.487-.328 1.147-.492 1.98-.492h.995v-.396c0-.304-.08-.544-.24-.72-.16-.184-.428-.276-.803-.276-.352 0-.633.076-.84.228-.209.152-.38.324-.517.516l-1.056-.936c.256-.376.576-.668.96-.876.392-.216.92-.324 1.584-.324.897 0 1.569.196 2.017.588.447.392.672.964.672 1.716v2.76h.587V78h-.983zm-2.46-1.092c.296 0 .547-.064.756-.192.216-.128.324-.336.324-.624v-.744h-.864c-.697 0-1.044.236-1.044.708v.18c0 .232.072.404.215.516.145.104.349.156.613.156zM40.182 78v-6.3h1.776v1.068h.073c.111-.328.308-.612.587-.852.28-.24.668-.36 1.164-.36.649 0 1.137.216 1.465.648.336.432.504 1.048.504 1.848V78h-1.776v-3.804c0-.408-.065-.708-.193-.9-.127-.2-.355-.3-.683-.3-.144 0-.284.02-.42.06-.137.032-.26.088-.373.168a.918.918 0 00-.252.3.785.785 0 00-.096.396V78h-1.776zM51.195 76.944h-.06a1.649 1.649 0 01-.228.48 1.634 1.634 0 01-.888.624 1.74 1.74 0 01-.576.096c-.8 0-1.404-.28-1.812-.84-.408-.568-.612-1.388-.612-2.46s.204-1.888.612-2.448c.408-.56 1.012-.84 1.812-.84.408 0 .768.112 1.08.336.32.224.524.512.612.864h.06V69.12h1.776V78h-1.776v-1.056zm-1.164-.24c.336 0 .612-.08.828-.24a.81.81 0 00.336-.684v-1.86a.779.779 0 00-.336-.672c-.216-.168-.492-.252-.828-.252-.336 0-.616.12-.84.36-.216.232-.324.548-.324.948v1.092c0 .4.108.72.324.96.224.232.504.348.84.348zM59.288 78c-.32 0-.588-.1-.804-.3-.208-.2-.34-.468-.396-.804h-.072a1.48 1.48 0 01-.636.936c-.328.208-.732.312-1.212.312-.632 0-1.116-.168-1.452-.504-.336-.336-.504-.78-.504-1.332 0-.664.24-1.156.72-1.476.488-.328 1.148-.492 1.98-.492h.996v-.396c0-.304-.08-.544-.24-.72-.16-.184-.428-.276-.804-.276-.352 0-.632.076-.84.228-.208.152-.38.324-.516.516l-1.056-.936c.256-.376.576-.668.96-.876.392-.216.92-.324 1.584-.324.896 0 1.568.196 2.016.588.448.392.672.964.672 1.716v2.76h.588V78h-.984zm-2.46-1.092c.296 0 .548-.064.756-.192.216-.128.324-.336.324-.624v-.744h-.864c-.696 0-1.044.236-1.044.708v.18c0 .232.072.404.216.516.144.104.348.156.612.156zM61.464 78v-6.3h1.776v1.368h.06c.032-.176.088-.344.168-.504.08-.168.184-.316.312-.444.136-.128.296-.228.48-.3.184-.08.4-.12.648-.12h.312v1.656h-.444c-.52 0-.908.068-1.164.204-.248.136-.372.388-.372.756V78h-1.776zM70.132 76.944h-.06a1.649 1.649 0 01-.228.48 1.634 1.634 0 01-.888.624 1.74 1.74 0 01-.576.096c-.8 0-1.403-.28-1.811-.84-.409-.568-.612-1.388-.612-2.46s.204-1.888.612-2.448c.407-.56 1.011-.84 1.811-.84.409 0 .769.112 1.08.336.32.224.525.512.613.864h.06V69.12h1.776V78h-1.777v-1.056zm-1.163-.24c.336 0 .612-.08.828-.24a.81.81 0 00.335-.684v-1.86a.779.779 0 00-.336-.672c-.216-.168-.492-.252-.828-.252-.336 0-.615.12-.84.36-.216.232-.323.548-.323.948v1.092c0 .4.107.72.323.96.225.232.504.348.84.348z" fill="#333"/><path d="M78 16.5H56a1.5 1.5 0 00-1.5 1.5v10a1.5 1.5 0 001.5 1.5h22a1.5 1.5 0 001.5-1.5V18a1.5 1.5 0 00-1.5-1.5z" fill="#4BB4B3"/><path d="M58.77 20.02h3.39c.58 0 1.03.163 1.35.49.327.326.49.76.49 1.3 0 .267-.038.492-.11.68a1.22 1.22 0 01-.28.46c-.114.12-.25.21-.41.27-.154.053-.32.082-.5.09v.06a1.64 1.64 0 011.03.38c.153.127.28.293.38.5.106.206.16.46.16.76 0 .272-.047.532-.14.78-.087.24-.21.45-.37.63s-.35.322-.57.43c-.22.1-.46.15-.72.15h-3.7v-6.98zm1.52 5.7h1.75c.2 0 .357-.053.47-.16.12-.113.18-.27.18-.47v-.34c0-.2-.06-.354-.18-.46-.113-.113-.27-.17-.47-.17h-1.75v1.6zm0-2.84h1.51c.2 0 .357-.057.47-.17.112-.114.17-.27.17-.47v-.3c0-.2-.057-.358-.17-.47-.114-.113-.27-.17-.47-.17h-1.51v1.58zM66.775 27l-2.25-6.98h1.54l1.04 3.35.55 2.19h.03l.53-2.19 1.04-3.35h1.49L68.477 27h-1.7zm4.615 0v-1.21h.9v-4.56h-.9v-1.21h3.32v1.21h-.9v4.56h.9V27h-3.32z" fill="#fff"/><path d="M78 16.5H56a1.5 1.5 0 00-1.5 1.5v10a1.5 1.5 0 001.5 1.5h22a1.5 1.5 0 001.5-1.5V18a1.5 1.5 0 00-1.5-1.5z" stroke="#4BB4B3"/></g><defs><clipPath id="prefix__clip0_29417_160636"><path fill="#fff" d="M0 0h96v99H0z"/></clipPath><clipPath id="prefix__clip1_29417_160636"><path fill="#fff" transform="translate(29 23)" d="M0 0h36v36H0z"/></clipPath></defs></svg>
